Costumes/taco-a.svg

<?xml version="1.0" encoding="UTF-8" standalone="no"?>
<svg
   version="1.1"
   width="46.365059"
   height="25.499664"
   viewBox="-1 -1 46.365059 25.499664"
   id="svg29"
   sodipodi:docname="taco-a.svg"
   xmlns:inkscape="http://www.inkscape.org/namespaces/inkscape"
   xmlns:sodipodi="http://sodipodi.sourceforge.net/DTD/sodipodi-0.dtd"
   xmlns="http://www.w3.org/2000/svg"
   xmlns:svg="http://www.w3.org/2000/svg">
  <defs
     id="defs33" />
  <sodipodi:namedview
     id="namedview31"
     pagecolor="#ffffff"
     bordercolor="#000000"
     borderopacity="0.25"
     inkscape:showpageshadow="2"
     inkscape:pageopacity="0.0"
     inkscape:pagecheckerboard="0"
     inkscape:deskcolor="#d1d1d1" />
  <!-- Exported by Scratch - http://scratch.mit.edu/ -->
  <g
     id="ID0.6225546635687351"
     transform="translate(-37.954598,-1.2503357)">
    <path
       id="ID0.8981337421573699"
       fill="#ffebae"
       stroke="#231f20"
       d="M 77.4,25 H 77.2 C 74.9,25 73,23 72.5,20.2 71.1,12.4 66.4,6.2 60.3,4 61.9,3.4 63.7,3.1 65.4,3.1 72.9,3 79.3,8.8 81.9,16.9 83.1,20.7 80.8,25 77.4,25 Z"
       transform="translate(0.15,0.25)" />
    <path
       id="ID0.39622050849720836"
       fill="#37b34a"
       stroke="#231f20"
       stroke-linecap="round"
       stroke-linejoin="round"
       d="m 78.4,17.7 c 0,0 5.8,-2.2 3.9,-4.9 C 80.9,11 78.9,11.8 78.2,11 77.5,10.2 77.7,5.2 75.3,5.1 72.9,5 72.1,6.4 70.3,5.6 68.5,4.8 69.1,1.3 66.5,2 63.9,2.7 64,3.8 62.4,3.5 60.8,3.2 59.4,0.2 57.4,0.8 55.4,1.4 54.9,2.9 53.3,3.2 51.7,3.5 50,1.9 47.9,2.6 45.8,3.3 46.8,5.7 45.2,6.2 43.6,6.7 42,5.7 41.2,8.4 c -0.8,2.7 0,3 -0.7,4.4 -0.7,1.4 31,4.7 37.9,4.9 z"
       transform="translate(0.15,0.25)" />
    <path
       id="ID0.6380414562299848"
       fill="#be1e2d"
       stroke="#231f20"
       stroke-linecap="round"
       stroke-linejoin="round"
       d="m 78.9,17.9 -1.7,-1 c -0.4,-0.2 -0.5,-0.6 -0.3,-0.9 0,0 0,0 0,-0.1 l 1,-1.7 c 0.2,-0.4 0.6,-0.5 0.9,-0.3 0,0 0,0 0.1,0 l 1.7,1 c 0.4,0.2 0.5,0.6 0.3,0.9 0,0 0,0 0,0.1 l -1,1.7 c -0.2,0.3 -0.6,0.5 -1,0.3 0,0 0,0 0,0 z"
       transform="translate(0.15,0.25)" />
    <path
       id="ID0.802543097641319"
       fill="none"
       stroke="#fff100"
       stroke-linecap="round"
       stroke-linejoin="round"
       d="M 71.9,12.7 71.3,10.5"
       transform="translate(0.15,0.25)" />
    <path
       id="ID0.8520334078930318"
       fill="#be1e2d"
       stroke="#231f20"
       stroke-linecap="round"
       stroke-linejoin="round"
       d="M 38.7,16.3 37.4,14 c -0.2,-0.4 -0.1,-0.9 0.3,-1.1 0,0 0,0 0,0 L 40,11.6 c 0.2,-0.3 0.7,-0.3 0.9,0 0.1,0.1 0.1,0.1 0.2,0.2 l 1.3,2.3 c 0.2,0.4 0.1,0.9 -0.3,1.1 0,0 0,0 0,0 l -2.3,1.3 c -0.4,0.2 -0.9,0.2 -1.1,-0.2 0,0 0,0 0,0 z"
       transform="translate(0.15,0.25)" />
    <path
       id="ID0.20036644209176302"
       fill="none"
       stroke="#fff100"
       stroke-linecap="round"
       stroke-linejoin="round"
       d="M 74.6,12.9 71,14.6"
       transform="translate(0.15,0.25)" />
    <path
       id="ID0.7809704001992941"
       fill="none"
       stroke="#fff100"
       stroke-linecap="round"
       stroke-linejoin="round"
       d="m 79.6,9.8 -4.1,0.4"
       transform="translate(0.15,0.25)" />
    <path
       id="ID0.7918770764954388"
       fill="#8a5d3b"
       stroke="#231f20"
       stroke-linecap="round"
       stroke-linejoin="round"
       d="m 77.4,17 c 0.3,-0.1 0.5,-0.1 0.8,-0.1 0.6,0.1 1,0.4 1.3,0.9 0.3,-0.3 0.8,-0.5 1.3,-0.4 0.9,0.1 1.6,0.9 1.5,1.8 0,0.4 -0.2,0.9 -0.6,1.1 0.4,0.3 0.6,0.9 0.5,1.4 -0.1,0.9 -0.9,1.6 -1.8,1.5 h -0.2 c -0.2,0.8 -1,1.3 -1.8,1.2 -0.2,0 -0.4,-0.1 -0.6,-0.2 -0.4,0.4 -0.9,0.6 -1.5,0.6 -0.4,0 -0.7,-0.2 -1,-0.4 -0.3,0.3 -0.8,0.4 -1.2,0.4 -0.9,-0.1 -1.6,-0.9 -1.5,-1.8 0.1,-0.6 0.5,-1.2 1.1,-1.4 V 21.2 C 72.8,21 72.3,20 72.5,19.1 c 0.2,-0.8 0.9,-1.3 1.7,-1.2 -0.1,-0.2 -0.1,-0.5 -0.1,-0.7 0.1,-0.9 0.9,-1.6 1.8,-1.5 0.7,0.1 1.3,0.6 1.5,1.3 z"
       transform="translate(0.15,0.25)" />
    <path
       id="ID0.26839282596483827"
       fill="#be1e2d"
       stroke="#231f20"
       stroke-linecap="round"
       stroke-linejoin="round"
       d="m 74.1,16.3 -2.3,1.3 c -0.4,0.2 -0.9,0.1 -1.1,-0.3 0,0 0,0 0,0 L 69.4,15 c -0.2,-0.4 -0.1,-0.9 0.3,-1.1 0,0 0,0 0,0 L 72,12.6 c 0.4,-0.2 0.9,-0.1 1.1,0.3 0,0 0,0 0,0 l 1.3,2.3 c 0.2,0.3 0.1,0.8 -0.2,1 -0.1,0 -0.1,0.1 -0.1,0.1 z"
       transform="translate(0.15,0.25)" />
    <path
       id="ID0.9713004296645522"
       fill="#be1e2d"
       stroke="#231f20"
       stroke-linecap="round"
       stroke-linejoin="round"
       d="m 67.3,10.2 -2.7,0.2 C 64.2,10.4 63.8,10 63.7,9.6 L 63.5,6.9 C 63.5,6.5 63.9,6.1 64.3,6 L 67,5.8 c 0.5,0 0.9,0.3 0.9,0.8 l 0.2,2.7 c -0.1,0.4 -0.4,0.8 -0.8,0.9 z"
       transform="translate(0.15,0.25)" />
    <path
       id="ID0.7196992384269834"
       fill="#be1e2d"
       stroke="#231f20"
       stroke-linecap="round"
       stroke-linejoin="round"
       d="M 52.9,5.8 50.7,4.2 C 50.3,4 50.2,3.6 50.4,3.2 c 0,0 0,-0.1 0.1,-0.1 l 1.6,-2.2 c 0.2,-0.4 0.6,-0.5 1,-0.3 0,0 0.1,0 0.1,0.1 l 2.2,1.6 c 0.4,0.2 0.5,0.6 0.3,1 0,0 0,0.1 -0.1,0.1 L 54,5.6 c -0.2,0.3 -0.7,0.4 -1.1,0.2 0,0 0,0 0,0 z"
       transform="translate(0.15,0.25)" />
    <path
       id="ID0.9369668094441295"
       fill="none"
       stroke="#fff100"
       stroke-linecap="round"
       stroke-linejoin="round"
       d="M 68.1,10.6 70.6,7.5"
       transform="translate(0.15,0.25)" />
    <path
       id="ID0.01696129236370325"
       fill="none"
       stroke="#fff100"
       stroke-linecap="round"
       stroke-linejoin="round"
       d="M 57,4.4 59.4,1.3"
       transform="translate(0.15,0.25)" />
    <path
       id="ID0.20967063819989562"
       fill="#ffebae"
       d="m 77.2,25 h -34 c -3.4,0 -5.7,-4.2 -4.5,-8.1 2.6,-8.1 9,-13.8 16.4,-13.8 1.8,0 3.6,0.3 5.3,0.9 -0.1,0 -0.2,0 -0.2,0.1 6.2,2.1 10.9,8.3 12.3,16.1 0.5,2.7 2.4,4.8 4.7,4.8 z"
       transform="translate(0.15,0.25)" />
    <path
       id="ID0.02154682297259569"
       fill="none"
       stroke="#ffffff"
       stroke-linecap="round"
       stroke-linejoin="round"
       d="M 41.8,14.4 C 44,10.2 47.2,7 51,5.6"
       transform="translate(0.15,0.25)" />
    <path
       id="ID0.06361814867705107"
       fill="#cebd8e"
       stroke="#cebd8e"
       stroke-linecap="round"
       stroke-linejoin="round"
       d="m 75.3,25 h -32 c -3.1,0 -5.4,-3.6 -4.7,-7.3 0.5,2.5 2.3,4.6 4.6,4.6 H 73 c 0.1,0.8 2.3,1.7 2.3,2.7 z"
       transform="translate(0.15,0.25)" />
    <path
       id="ID0.3869165335781872"
       fill="#cebd8e"
       d="m 59.1,14.4 c 0.248,0 0.473,0.101 0.636,0.264 C 59.899,14.827 60,15.052 60,15.3 60,15.548 59.899,15.773 59.736,15.936 59.573,16.099 59.348,16.2 59.1,16.2 58.852,16.2 58.627,16.099 58.464,15.936 58.301,15.773 58.2,15.548 58.2,15.3 c 0,-0.248 0.101,-0.473 0.264,-0.636 C 58.627,14.501 58.852,14.4 59.1,14.4 Z"
       transform="translate(0.15,0.25)" />
    <path
       id="ID0.18960871454328299"
       fill="#cebd8e"
       d="m 47,11 c 0.248,0 0.473,0.101 0.636,0.264 0.163,0.163 0.264,0.388 0.264,0.636 0,0.248 -0.101,0.473 -0.264,0.636 C 47.473,12.699 47.248,12.8 47,12.8 46.752,12.8 46.527,12.699 46.364,12.536 46.201,12.373 46.1,12.148 46.1,11.9 c 0,-0.248 0.101,-0.473 0.264,-0.636 C 46.527,11.101 46.752,11 47,11 Z"
       transform="translate(0.15,0.25)" />
    <path
       id="ID0.7332960367202759"
       fill="#cebd8e"
       d="m 50.8,15.9 c 0.248,0 0.473,0.101 0.636,0.264 0.163,0.163 0.264,0.388 0.264,0.636 0,0.248 -0.101,0.473 -0.264,0.636 C 51.273,17.599 51.048,17.7 50.8,17.7 50.552,17.7 50.327,17.599 50.164,17.436 50.001,17.273 49.9,17.048 49.9,16.8 c 0,-0.248 0.101,-0.473 0.264,-0.636 C 50.327,16.001 50.552,15.9 50.8,15.9 Z"
       transform="translate(0.15,0.25)" />
    <path
       id="ID0.5612127794884145"
       fill="#cebd8e"
       d="m 43.5,16.8 c 0.248,0 0.473,0.101 0.636,0.264 0.163,0.163 0.264,0.388 0.264,0.636 0,0.248 -0.101,0.473 -0.264,0.636 C 43.973,18.499 43.748,18.6 43.5,18.6 43.252,18.6 43.027,18.499 42.864,18.336 42.701,18.173 42.6,17.948 42.6,17.7 c 0,-0.248 0.101,-0.473 0.264,-0.636 C 43.027,16.901 43.252,16.8 43.5,16.8 Z"
       transform="translate(0.15,0.25)" />
    <path
       id="ID0.9774294998496771"
       fill="#cebd8e"
       d="m 61.5,9.3 c 0.248,0 0.473,0.101 0.636,0.264 0.163,0.163 0.264,0.388 0.264,0.636 0,0.248 -0.101,0.473 -0.264,0.636 C 61.973,10.999 61.748,11.1 61.5,11.1 61.252,11.1 61.027,10.999 60.864,10.836 60.701,10.673 60.6,10.448 60.6,10.2 60.6,9.952 60.701,9.727 60.864,9.564 61.027,9.401 61.252,9.3 61.5,9.3 Z"
       transform="translate(0.15,0.25)" />
    <path
       id="ID0.950283263809979"
       fill="#cebd8e"
       d="m 65.8,16.3 c 0.248,0 0.473,0.101 0.636,0.264 0.163,0.163 0.264,0.388 0.264,0.636 0,0.248 -0.101,0.473 -0.264,0.636 C 66.273,17.999 66.048,18.1 65.8,18.1 65.552,18.1 65.327,17.999 65.164,17.836 65.001,17.673 64.9,17.448 64.9,17.2 c 0,-0.248 0.101,-0.473 0.264,-0.636 C 65.327,16.401 65.552,16.3 65.8,16.3 Z"
       transform="translate(0.15,0.25)" />
    <path
       id="ID0.9049051431939006"
       fill="#cebd8e"
       d="m 54.2,7.5 c 0.248,0 0.473,0.101 0.636,0.264 C 54.999,7.927 55.1,8.152 55.1,8.4 55.1,8.648 54.999,8.873 54.836,9.036 54.673,9.199 54.448,9.3 54.2,9.3 53.952,9.3 53.727,9.199 53.564,9.036 53.401,8.873 53.3,8.648 53.3,8.4 53.3,8.152 53.401,7.927 53.564,7.764 53.727,7.601 53.952,7.5 54.2,7.5 Z"
       transform="translate(0.15,0.25)" />
    <path
       id="ID0.2982359016314149"
       fill="none"
       stroke="#fff100"
       stroke-linecap="round"
       stroke-linejoin="round"
       d="M 75.3,6.8 73,8.1"
       transform="translate(0.15,0.25)" />
    <path
       id="ID0.03489873092621565"
       fill="none"
       stroke="#fff100"
       stroke-linecap="round"
       stroke-linejoin="round"
       d="M 67.5,4.3 64.9,4.6"
       transform="translate(0.15,0.25)" />
    <path
       id="ID0.031841687858104706"
       fill="none"
       stroke="#231f20"
       stroke-linecap="round"
       stroke-linejoin="round"
       d="m 77.2,25 h -34 c -3.4,0 -5.7,-4.2 -4.5,-8.1 2.6,-8.1 9,-13.8 16.4,-13.8 1.8,0 3.6,0.3 5.3,0.9 -0.1,0 -0.2,0 -0.2,0.1 6.2,2.1 10.9,8.3 12.3,16.1 0.5,2.7 2.4,4.8 4.7,4.8 z"
       transform="translate(0.15,0.25)" />
  </g>
</svg>

<svg version="1.1" width="48" height="27" viewBox="-1 -1 48 27" xmlns="http://www.w3.org/2000/svg" xmlns:xlink="http://www.w3.org/1999/xlink">
  <!-- Exported by Scratch - http://scratch.mit.edu/ -->
  <g id="ID0.6225546635687351" transform="matrix(1, 0, 0, 1, -36, 0)">
    <path id="ID0.8981337421573699" fill="#FFEBAE" stroke="#231F20" d="M 77.400 25 L 77.200 25 C 74.900 25 73 23 72.500 20.200 C 71.100 12.400 66.400 6.200 60.300 4 C 61.900 3.400 63.700 3.100 65.400 3.100 C 72.900 3 79.300 8.800 81.900 16.900 C 83.100 20.700 80.800 25 77.400 25 Z " transform="matrix(1, 0, 0, 1, 0.15, 0.25)"/>
    <path id="ID0.39622050849720836" fill="#37B34A" stroke="#231F20" stroke-linecap="round" stroke-linejoin="round" d="M 78.400 17.700 C 78.400 17.700 84.200 15.500 82.300 12.800 C 80.900 11 78.900 11.800 78.200 11 C 77.500 10.200 77.700 5.200 75.300 5.100 C 72.900 5 72.100 6.400 70.300 5.600 C 68.500 4.800 69.100 1.300 66.500 2 C 63.900 2.700 64 3.800 62.400 3.500 C 60.800 3.200 59.400 0.200 57.400 0.800 C 55.400 1.400 54.900 2.900 53.300 3.200 C 51.700 3.500 50 1.900 47.900 2.600 C 45.800 3.300 46.800 5.700 45.200 6.200 C 43.600 6.700 42 5.700 41.200 8.400 C 40.400 11.100 41.200 11.400 40.500 12.800 C 39.800 14.200 71.500 17.500 78.400 17.700 Z " transform="matrix(1, 0, 0, 1, 0.15, 0.25)"/>
    <path id="ID0.6380414562299848" fill="#BE1E2D" stroke="#231F20" stroke-linecap="round" stroke-linejoin="round" d="M 78.900 17.900 L 77.200 16.900 C 76.800 16.700 76.700 16.300 76.900 16 C 76.900 16 76.900 16 76.900 15.900 L 77.900 14.200 C 78.100 13.800 78.500 13.700 78.800 13.900 C 78.800 13.900 78.800 13.900 78.900 13.900 L 80.600 14.900 C 81 15.100 81.100 15.500 80.900 15.800 C 80.900 15.800 80.900 15.800 80.900 15.900 L 79.900 17.600 C 79.700 17.900 79.300 18.100 78.900 17.900 C 78.900 17.900 78.900 17.900 78.900 17.900 Z " transform="matrix(1, 0, 0, 1, 0.15, 0.25)"/>
    <path id="ID0.802543097641319" fill="none" stroke="#FFF100" stroke-linecap="round" stroke-linejoin="round" d="M 71.900 12.700 L 71.300 10.500 " transform="matrix(1, 0, 0, 1, 0.15, 0.25)"/>
    <path id="ID0.8520334078930318" fill="#BE1E2D" stroke="#231F20" stroke-linecap="round" stroke-linejoin="round" d="M 38.700 16.300 L 37.400 14 C 37.200 13.600 37.300 13.100 37.700 12.900 C 37.700 12.900 37.700 12.900 37.700 12.900 L 40 11.600 C 40.200 11.300 40.700 11.300 40.900 11.600 C 41 11.700 41 11.700 41.100 11.800 L 42.400 14.100 C 42.600 14.500 42.500 15 42.100 15.200 C 42.100 15.200 42.100 15.200 42.100 15.200 L 39.800 16.500 C 39.400 16.700 38.900 16.700 38.700 16.300 C 38.700 16.300 38.700 16.300 38.700 16.300 Z " transform="matrix(1, 0, 0, 1, 0.15, 0.25)"/>
    <path id="ID0.20036644209176302" fill="none" stroke="#FFF100" stroke-linecap="round" stroke-linejoin="round" d="M 74.600 12.900 L 71 14.600 " transform="matrix(1, 0, 0, 1, 0.15, 0.25)"/>
    <path id="ID0.7809704001992941" fill="none" stroke="#FFF100" stroke-linecap="round" stroke-linejoin="round" d="M 79.600 9.800 L 75.500 10.200 " transform="matrix(1, 0, 0, 1, 0.15, 0.25)"/>
    <path id="ID0.7918770764954388" fill="#8A5D3B" stroke="#231F20" stroke-linecap="round" stroke-linejoin="round" d="M 77.400 17 C 77.700 16.900 77.900 16.900 78.200 16.900 C 78.800 17 79.200 17.300 79.500 17.800 C 79.800 17.500 80.300 17.300 80.800 17.400 C 81.700 17.500 82.400 18.300 82.300 19.200 C 82.300 19.600 82.100 20.100 81.700 20.300 C 82.100 20.600 82.300 21.200 82.200 21.700 C 82.100 22.600 81.300 23.300 80.400 23.200 L 80.200 23.200 C 80 24 79.200 24.500 78.400 24.400 C 78.200 24.400 78 24.300 77.800 24.200 C 77.400 24.600 76.900 24.800 76.300 24.800 C 75.900 24.800 75.600 24.600 75.300 24.400 C 75 24.700 74.500 24.800 74.100 24.800 C 73.200 24.700 72.500 23.900 72.600 23 C 72.700 22.400 73.100 21.800 73.700 21.600 L 73.700 21.200 C 72.800 21 72.300 20 72.500 19.100 C 72.700 18.300 73.400 17.800 74.200 17.900 C 74.100 17.700 74.100 17.400 74.100 17.200 C 74.200 16.300 75 15.600 75.900 15.700 C 76.600 15.800 77.200 16.300 77.400 17 Z " transform="matrix(1, 0, 0, 1, 0.15, 0.25)"/>
    <path id="ID0.26839282596483827" fill="#BE1E2D" stroke="#231F20" stroke-linecap="round" stroke-linejoin="round" d="M 74.100 16.300 L 71.800 17.600 C 71.400 17.800 70.900 17.700 70.700 17.300 C 70.700 17.300 70.700 17.300 70.700 17.300 L 69.400 15 C 69.200 14.600 69.300 14.100 69.700 13.900 C 69.700 13.900 69.700 13.900 69.700 13.900 L 72 12.600 C 72.400 12.400 72.900 12.500 73.100 12.900 C 73.100 12.900 73.100 12.900 73.100 12.900 L 74.400 15.200 C 74.600 15.500 74.500 16 74.200 16.200 C 74.100 16.200 74.100 16.300 74.100 16.300 Z " transform="matrix(1, 0, 0, 1, 0.15, 0.25)"/>
    <path id="ID0.9713004296645522" fill="#BE1E2D" stroke="#231F20" stroke-linecap="round" stroke-linejoin="round" d="M 67.300 10.200 L 64.600 10.400 C 64.200 10.400 63.800 10 63.700 9.600 L 63.500 6.900 C 63.500 6.500 63.900 6.100 64.300 6 L 67 5.800 C 67.500 5.800 67.900 6.100 67.900 6.600 L 68.100 9.300 C 68 9.700 67.700 10.100 67.300 10.200 Z " transform="matrix(1, 0, 0, 1, 0.15, 0.25)"/>
    <path id="ID0.7196992384269834" fill="#BE1E2D" stroke="#231F20" stroke-linecap="round" stroke-linejoin="round" d="M 52.900 5.800 L 50.700 4.200 C 50.300 4 50.200 3.600 50.400 3.200 C 50.400 3.200 50.400 3.100 50.500 3.100 L 52.100 0.900 C 52.300 0.500 52.700 0.400 53.100 0.600 C 53.100 0.600 53.200 0.600 53.200 0.700 L 55.400 2.300 C 55.800 2.500 55.900 2.900 55.700 3.300 C 55.700 3.300 55.700 3.400 55.600 3.400 L 54 5.600 C 53.800 5.900 53.300 6 52.900 5.800 C 52.900 5.800 52.900 5.800 52.900 5.800 Z " transform="matrix(1, 0, 0, 1, 0.15, 0.25)"/>
    <path id="ID0.9369668094441295" fill="none" stroke="#FFF100" stroke-linecap="round" stroke-linejoin="round" d="M 68.100 10.600 L 70.600 7.500 " transform="matrix(1, 0, 0, 1, 0.15, 0.25)"/>
    <path id="ID0.01696129236370325" fill="none" stroke="#FFF100" stroke-linecap="round" stroke-linejoin="round" d="M 57 4.400 L 59.400 1.300 " transform="matrix(1, 0, 0, 1, 0.15, 0.25)"/>
    <path id="ID0.20967063819989562" fill="#FFEBAE" d="M 77.200 25 L 43.200 25 C 39.800 25 37.500 20.800 38.700 16.900 C 41.300 8.800 47.700 3.100 55.100 3.100 C 56.900 3.100 58.700 3.400 60.400 4 C 60.300 4 60.200 4 60.200 4.100 C 66.400 6.200 71.100 12.400 72.500 20.200 C 73 22.900 74.900 25 77.200 25 Z " transform="matrix(1, 0, 0, 1, 0.15, 0.25)"/>
    <path id="ID0.02154682297259569" fill="none" stroke="#FFFFFF" stroke-linecap="round" stroke-linejoin="round" d="M 41.800 14.400 C 44 10.200 47.200 7 51 5.600 " transform="matrix(1, 0, 0, 1, 0.15, 0.25)"/>
    <path id="ID0.06361814867705107" fill="#CEBD8E" stroke="#CEBD8E" stroke-linecap="round" stroke-linejoin="round" d="M 75.300 25 L 43.300 25 C 40.200 25 37.900 21.400 38.600 17.700 C 39.100 20.200 40.900 22.300 43.200 22.300 L 73 22.300 C 73.100 23.100 75.300 24 75.300 25 Z " transform="matrix(1, 0, 0, 1, 0.15, 0.25)"/>
    <path id="ID0.3869165335781872" fill="#CEBD8E" d="M 59.100 14.400 C 59.348 14.400 59.573 14.501 59.736 14.664 C 59.899 14.827 60 15.052 60 15.300 C 60 15.548 59.899 15.773 59.736 15.936 C 59.573 16.099 59.348 16.200 59.100 16.200 C 58.852 16.200 58.627 16.099 58.464 15.936 C 58.301 15.773 58.200 15.548 58.200 15.300 C 58.200 15.052 58.301 14.827 58.464 14.664 C 58.627 14.501 58.852 14.400 59.100 14.400 Z " transform="matrix(1, 0, 0, 1, 0.15, 0.25)"/>
    <path id="ID0.18960871454328299" fill="#CEBD8E" d="M 47 11 C 47.248 11 47.473 11.101 47.636 11.264 C 47.799 11.427 47.900 11.652 47.900 11.900 C 47.900 12.148 47.799 12.373 47.636 12.536 C 47.473 12.699 47.248 12.800 47 12.800 C 46.752 12.800 46.527 12.699 46.364 12.536 C 46.201 12.373 46.100 12.148 46.100 11.900 C 46.100 11.652 46.201 11.427 46.364 11.264 C 46.527 11.101 46.752 11 47 11 Z " transform="matrix(1, 0, 0, 1, 0.15, 0.25)"/>
    <path id="ID0.7332960367202759" fill="#CEBD8E" d="M 50.800 15.900 C 51.048 15.900 51.273 16.001 51.436 16.164 C 51.599 16.327 51.700 16.552 51.700 16.800 C 51.700 17.048 51.599 17.273 51.436 17.436 C 51.273 17.599 51.048 17.700 50.800 17.700 C 50.552 17.700 50.327 17.599 50.164 17.436 C 50.001 17.273 49.900 17.048 49.900 16.800 C 49.900 16.552 50.001 16.327 50.164 16.164 C 50.327 16.001 50.552 15.900 50.800 15.900 Z " transform="matrix(1, 0, 0, 1, 0.15, 0.25)"/>
    <path id="ID0.5612127794884145" fill="#CEBD8E" d="M 43.500 16.800 C 43.748 16.800 43.973 16.901 44.136 17.064 C 44.299 17.227 44.400 17.452 44.400 17.700 C 44.400 17.948 44.299 18.173 44.136 18.336 C 43.973 18.499 43.748 18.600 43.500 18.600 C 43.252 18.600 43.027 18.499 42.864 18.336 C 42.701 18.173 42.600 17.948 42.600 17.700 C 42.600 17.452 42.701 17.227 42.864 17.064 C 43.027 16.901 43.252 16.800 43.500 16.800 Z " transform="matrix(1, 0, 0, 1, 0.15, 0.25)"/>
    <path id="ID0.9774294998496771" fill="#CEBD8E" d="M 61.500 9.300 C 61.748 9.300 61.973 9.401 62.136 9.564 C 62.299 9.727 62.400 9.952 62.400 10.200 C 62.400 10.448 62.299 10.673 62.136 10.836 C 61.973 10.999 61.748 11.100 61.500 11.100 C 61.252 11.100 61.027 10.999 60.864 10.836 C 60.701 10.673 60.600 10.448 60.600 10.200 C 60.600 9.952 60.701 9.727 60.864 9.564 C 61.027 9.401 61.252 9.300 61.500 9.300 Z " transform="matrix(1, 0, 0, 1, 0.15, 0.25)"/>
    <path id="ID0.950283263809979" fill="#CEBD8E" d="M 65.800 16.300 C 66.048 16.300 66.273 16.401 66.436 16.564 C 66.599 16.727 66.700 16.952 66.700 17.200 C 66.700 17.448 66.599 17.673 66.436 17.836 C 66.273 17.999 66.048 18.100 65.800 18.100 C 65.552 18.100 65.327 17.999 65.164 17.836 C 65.001 17.673 64.900 17.448 64.900 17.200 C 64.900 16.952 65.001 16.727 65.164 16.564 C 65.327 16.401 65.552 16.300 65.800 16.300 Z " transform="matrix(1, 0, 0, 1, 0.15, 0.25)"/>
    <path id="ID0.9049051431939006" fill="#CEBD8E" d="M 54.200 7.500 C 54.448 7.500 54.673 7.601 54.836 7.764 C 54.999 7.927 55.100 8.152 55.100 8.400 C 55.100 8.648 54.999 8.873 54.836 9.036 C 54.673 9.199 54.448 9.300 54.200 9.300 C 53.952 9.300 53.727 9.199 53.564 9.036 C 53.401 8.873 53.300 8.648 53.300 8.400 C 53.300 8.152 53.401 7.927 53.564 7.764 C 53.727 7.601 53.952 7.500 54.200 7.500 Z " transform="matrix(1, 0, 0, 1, 0.15, 0.25)"/>
    <path id="ID0.2982359016314149" fill="none" stroke="#FFF100" stroke-linecap="round" stroke-linejoin="round" d="M 75.300 6.800 L 73 8.100 " transform="matrix(1, 0, 0, 1, 0.15, 0.25)"/>
    <path id="ID0.03489873092621565" fill="none" stroke="#FFF100" stroke-linecap="round" stroke-linejoin="round" d="M 67.500 4.300 L 64.900 4.600 " transform="matrix(1, 0, 0, 1, 0.15, 0.25)"/>
    <path id="ID0.031841687858104706" fill="none" stroke="#231F20" stroke-linecap="round" stroke-linejoin="round" d="M 77.200 25 L 43.200 25 C 39.800 25 37.500 20.800 38.700 16.900 C 41.300 8.800 47.700 3.100 55.100 3.100 C 56.900 3.100 58.700 3.400 60.400 4 C 60.300 4 60.200 4 60.200 4.100 C 66.400 6.200 71.100 12.400 72.500 20.200 C 73 22.900 74.900 25 77.200 25 Z " transform="matrix(1, 0, 0, 1, 0.15, 0.25)"/>
  </g>
</svg>
